icons/1_Primary/Tiny Tiny RSS.svg

<svg width="1024" height="1024" viewBox="0 0 1024 1024" fill="none" xmlns="http://www.w3.org/2000/svg">
<g clip-path="url(#clip0_2_3660)">
<path d="M512 1024C794.77 1024 1024 794.77 1024 512C1024 229.23 794.77 0 512 0C229.23 0 0 229.23 0 512C0 794.77 229.23 1024 512 1024Z" fill="#F8C18C"/>
<path d="M445.529 673.29C433.069 699.53 406.749 717.67 376.189 717.67C333.629 717.67 299.129 682.55 299.129 639.23C299.129 595.91 333.629 560.79 376.189 560.79C395.843 560.812 414.724 568.446 428.869 582.09C423.809 620.37 426.809 652 445.529 673.29ZM676.289 451.18L596.779 451.7L588.529 486.17C649.389 553.31 688.999 638 688.999 725.11L779.069 725.34C779.089 629.23 739.199 532.46 676.289 451.18ZM435.559 544.81C441.199 519.25 448.919 491.65 456.989 462.81L458.989 455.47L459.929 452.1L452.799 451.92L420.579 451.13C419.507 451.099 418.456 450.821 417.508 450.318C416.56 449.816 415.74 449.102 415.112 448.232C414.483 447.362 414.064 446.359 413.885 445.301C413.706 444.243 413.772 443.159 414.079 442.13L415.799 436.39L416.359 433.95C377.119 417.03 337.049 407.29 300.869 406.24L298.869 497.24C353.459 495.5 398.999 515.71 435.559 544.81ZM430.699 371.1C431.045 369.603 431.873 368.262 433.057 367.282C434.241 366.303 435.714 365.74 437.249 365.68L485.789 364.07L503.079 301.51C438.819 265.78 369.019 244.65 300.079 244.65L299.469 346.32C343.469 346.56 387.809 356.49 430.029 373.87L430.699 371.1ZM620.159 689.44C590.599 695.8 564.879 699.56 542.609 700.77C545.879 711.07 547.609 719.32 547.679 724.36L622.489 725.23C623.624 712.882 623.761 700.461 622.899 688.09C622.099 688.741 621.162 689.202 620.159 689.44ZM564.759 585.55C560.149 601.08 565.919 605.06 567.759 606.37C575.399 611.64 590.039 610.97 603.089 608.49C594.749 589.575 584.35 571.637 572.079 555L564.759 585.55ZM616.679 648.2C618.739 634.75 620.389 625.06 621.819 618.06C617.43 619.484 612.971 620.683 608.459 621.65C591.879 625.25 572.129 626.26 559.909 617.83C552.619 612.83 545.219 602.49 551.329 581.95L561.139 540.95L577.139 474.06L584.519 443.2C584.888 441.691 585.748 440.346 586.965 439.38C588.181 438.413 589.685 437.878 591.239 437.86L665.129 437.37L675.579 437.3L687.169 379.35L612.489 376.66C611.486 376.618 610.504 376.359 609.61 375.904C608.715 375.448 607.929 374.805 607.305 374.019C606.681 373.232 606.233 372.321 605.993 371.346C605.752 370.372 605.723 369.357 605.909 368.37L622.419 283.66L516.999 303.58L515.619 308.58L497.889 372.74C497.49 374.169 496.647 375.433 495.482 376.352C494.318 377.27 492.891 377.795 491.409 377.85L443.129 379.45L429.939 437.45L469.299 438.45C470.355 438.483 471.39 438.755 472.326 439.244C473.261 439.734 474.075 440.429 474.704 441.278C475.333 442.126 475.762 443.106 475.958 444.144C476.155 445.182 476.114 446.251 475.839 447.27L471.459 462.97L470.459 466.6C461.659 498.06 453.339 527.94 447.689 555C444.663 568.904 442.493 582.981 441.189 597.15C439.189 621.82 441.599 642.48 451.109 657.6C452.848 660.422 454.858 663.068 457.109 665.5C472.109 681.45 498.809 688.57 537.809 687.04C559.039 686.21 583.859 682.85 612.549 676.86C614.049 665.76 615.439 656.3 616.679 648.2Z" fill="white"/>
</g>
<defs>
<clipPath id="clip0_2_3660">
<rect width="1024" height="1024" fill="white"/>
</clipPath>
</defs>
</svg>

<svg xmlns="http://www.w3.org/2000/svg" viewBox="0 0 1024 1024">
   <circle cx="512" cy="512" r="512" style="fill:#e3712d"/>
   <path d="M445.53 673.29c-12.46 26.24-38.78 44.38-69.34 44.38-42.56 0-77.06-35.12-77.06-78.44s34.5-78.44 77.06-78.44a76 76 0 0 1 52.68 21.3c-5.06 38.28-2.06 69.91 16.66 91.2Zm230.76-222.11-79.51.52-8.25 34.47C649.39 553.31 689 638 689 725.11l90.07.23c.02-96.11-39.87-192.88-102.78-274.16Zm-240.73 93.63c5.64-25.56 13.36-53.16 21.43-82l2-7.34.94-3.37-7.13-.18-32.22-.79a7 7 0 0 1-6.5-9l1.72-5.74.56-2.44c-39.24-16.92-79.31-26.66-115.49-27.71l-2 91c54.59-1.74 100.13 18.47 136.69 47.57ZM430.7 371.1a7 7 0 0 1 6.55-5.42l48.54-1.61 17.29-62.56c-64.26-35.73-134.06-56.86-203-56.86l-.61 101.67c44 .24 88.34 10.17 130.56 27.55Zm189.46 318.34c-29.56 6.36-55.28 10.12-77.55 11.33 3.27 10.3 5 18.55 5.07 23.59l74.81.87a230.67 230.67 0 0 0 .41-37.14 6.86 6.86 0 0 1-2.74 1.35Zm-55.4-103.89c-4.61 15.53 1.16 19.51 3 20.82 7.64 5.27 22.28 4.6 35.33 2.12A281.35 281.35 0 0 0 572.08 555Zm51.92 62.65c2.06-13.45 3.71-23.14 5.14-30.14a135.17 135.17 0 0 1-13.36 3.59c-16.58 3.6-36.33 4.61-48.55-3.82-7.29-5-14.69-15.34-8.58-35.88l9.81-41 16-66.89 7.38-30.86a7 7 0 0 1 6.72-5.34l73.89-.49 10.45-.07 11.59-57.95-74.68-2.69a7 7 0 0 1-6.58-8.29l16.51-84.71L517 303.58l-1.38 5-17.73 64.16a7 7 0 0 1-6.48 5.11l-48.28 1.6-13.19 58 39.36 1a7 7 0 0 1 6.54 8.82l-4.38 15.7-1 3.63c-8.8 31.46-17.12 61.34-22.77 88.4a348.23 348.23 0 0 0-6.5 42.15c-2 24.67.41 45.33 9.92 60.45a51.08 51.08 0 0 0 6 7.9c15 15.95 41.7 23.07 80.7 21.54 21.23-.83 46.05-4.19 74.74-10.18 1.5-11.1 2.89-20.56 4.13-28.66Z" style="fill:#fff"/>
</svg>
